demos/printerdemo/ui/images/mcu/home.svg

<svg fill="none" height="20" viewBox="0 0 20 20" width="20" xmlns="http://www.w3.org/2000/svg"><g stroke="#fff" stroke-linecap="round" stroke-linejoin="round" stroke-width="1.66667"><path d="m12.5 17.5v-6.6667c0-.221-.0878-.4329-.2441-.5892s-.3682-.2441-.5892-.2441h-3.33337c-.22101 0-.43297.0878-.58925.2441s-.24408.3682-.24408.5892v6.6667"/><path d="m2.5 8.33335c-.00006-.24245.05278-.48198.15482-.70191.10205-.21992.25084-.41493.43601-.57143l5.83334-4.99916c.30082-.25425.68196-.39374 1.07583-.39374.3939 0 .775.13949 1.0758.39374l5.8334 4.99916c.1851.1565.3339.35151.436.57143.102.21993.1549.45946.1548.70191v7.49995c0 .4421-.1756.866-.4882 1.1786-.3125.3125-.7364.4881-1.1785.4881h-11.66663c-.44203 0-.86595-.1756-1.17851-.4881-.31257-.3126-.48816-.7365-.48816-1.1786z"/></g></svg>

<svg width="20" height="20" viewBox="0 0 20 20" fill="none" xmlns="http://www.w3.org/2000/svg">
<path d="M12.5 17.5V10.8333C12.5 10.6123 12.4122 10.4004 12.2559 10.2441C12.0996 10.0878 11.8877 10 11.6667 10H8.33333C8.11232 10 7.90036 10.0878 7.74408 10.2441C7.5878 10.4004 7.5 10.6123 7.5 10.8333V17.5" stroke="white" stroke-width="1.66667" stroke-linecap="round" stroke-linejoin="round"/>
<path d="M2.5 8.33335C2.49994 8.0909 2.55278 7.85137 2.65482 7.63144C2.75687 7.41152 2.90566 7.21651 3.09083 7.06001L8.92417 2.06085C9.22499 1.8066 9.60613 1.66711 10 1.66711C10.3939 1.66711 10.775 1.8066 11.0758 2.06085L16.9092 7.06001C17.0943 7.21651 17.2431 7.41152 17.3452 7.63144C17.4472 7.85137 17.5001 8.0909 17.5 8.33335V15.8333C17.5 16.2754 17.3244 16.6993 17.0118 17.0119C16.6993 17.3244 16.2754 17.5 15.8333 17.5H4.16667C3.72464 17.5 3.30072 17.3244 2.98816 17.0119C2.67559 16.6993 2.5 16.2754 2.5 15.8333V8.33335Z" stroke="white" stroke-width="1.66667" stroke-linecap="round" stroke-linejoin="round"/>
</svg>
